src/assets/icon/leader.svg

<svg id="Layer_1" enable-background="new 0 0 512 512" height="512" viewBox="0 0 512 512" width="512" xmlns="http://www.w3.org/2000/svg"><path d="m457.489 171.693c9.963-11.84 15.982-27.104 15.982-43.753 0-37.529-30.532-68.061-68.062-68.061-37.528 0-68.061 30.532-68.061 68.061 0 .397.023.789.03 1.184-7.745-4.68-16.797-7.378-26.466-7.378h-13.194c15.988-12.465 26.3-31.888 26.3-53.685.002-37.529-30.531-68.061-68.059-68.061-37.529 0-68.061 30.532-68.061 68.061 0 21.797 10.312 41.22 26.3 53.685h-13.194c-9.634 0-18.656 2.68-26.382 7.33.006-.38.029-.755.029-1.136 0-37.529-30.532-68.061-68.061-68.061s-68.06 30.532-68.06 68.06c0 16.649 6.018 31.913 15.982 43.753-25.818 1.009-46.512 22.164-46.512 48.038v109.184c0 18.53 10.619 34.634 26.126 42.66l13.792 127.045c.827 7.613 7.255 13.381 14.913 13.381h87.519c7.658 0 14.086-5.768 14.912-13.381l13.795-127.067c1.27-.657 2.51-1.367 3.715-2.131l14.52 129.253c.853 7.589 7.27 13.326 14.906 13.326h87.519c7.638 0 14.056-5.738 14.906-13.328l14.51-129.37c1.234.79 2.502 1.527 3.804 2.205l13.8 127.113c.826 7.613 7.255 13.381 14.912 13.381h87.52c7.657 0 14.086-5.768 14.912-13.381l13.792-127.044c15.507-8.026 26.126-24.13 26.126-42.66v-109.186c.001-25.874-20.693-47.03-46.51-48.037zm-201.53-141.693c20.986 0 38.061 17.074 38.061 38.061s-17.074 38.061-38.061 38.061-38.061-17.074-38.061-38.061 17.074-38.061 38.061-38.061zm218.041 189.73v109.184c0 9.973-8.271 18.086-18.436 18.086h-100.31c-6.214 0-11.878-3.133-15.245-7.977 13.596-9.384 22.538-25.142 22.538-42.97v-94.41h93.016c10.166.001 18.437 8.114 18.437 18.087zm-68.591-129.852c20.987 0 38.062 17.074 38.062 38.061s-17.075 38.061-38.062 38.061c-20.986 0-38.061-17.074-38.061-38.061s17.075-38.061 38.061-38.061zm-139.036 117.004-10.414 13.495-10.415-13.495 10.415-26.62zm-87.004-33.088c0-12.158 9.706-22.048 21.636-22.048h33.897l-20.388 52.114c-1.919 4.906-1.125 10.458 2.094 14.629l27.477 35.605c2.84 3.681 7.226 5.836 11.875 5.836 4.648 0 9.035-2.156 11.875-5.836l27.477-35.605c3.219-4.17 4.014-9.723 2.094-14.629l-20.388-52.114h33.897c11.93 0 21.636 9.891 21.636 22.048v122.26c0 12.158-9.706 22.048-21.636 22.048h-109.911c-11.93 0-21.636-9.891-21.636-22.048v-122.26zm-72.779-83.916c20.987 0 38.061 17.074 38.061 38.061s-17.074 38.061-38.061 38.061-38.06-17.074-38.06-38.061 17.074-38.061 38.06-38.061zm-68.59 129.852c0-9.973 8.271-18.086 18.436-18.086h92.933v94.41c0 17.855 8.969 33.636 22.601 43.015-3.388 4.87-9.05 7.932-15.225 7.932h-100.309c-10.165-.001-18.436-8.114-18.436-18.087zm38.29 262.27-11.399-105h83.399l-11.4 105zm210.017 0h-60.698l-15.042-133.898h90.758zm88.803 0-11.399-105h83.398l-11.399 105z"/></svg>

<?xml version="1.0" encoding="UTF-8" standalone="no"?>
<!DOCTYPE svg PUBLIC "-//W3C//DTD SVG 1.1//EN" "http://www.w3.org/Graphics/SVG/1.1/DTD/svg11.dtd">
<svg width="100%" height="100%" viewBox="0 0 512 512" version="1.1" xmlns="http://www.w3.org/2000/svg" xmlns:xlink="http://www.w3.org/1999/xlink" xml:space="preserve" xmlns:serif="http://www.serif.com/" style="fill-rule:evenodd;clip-rule:evenodd;stroke-linejoin:round;stroke-miterlimit:1.41421;">
    <path d="M457.489,171.693C467.452,159.853 473.471,144.589 473.471,127.94C473.471,90.411 442.939,59.879 405.409,59.879C367.881,59.879 337.348,90.411 337.348,127.94C337.348,128.337 337.371,128.729 337.378,129.124C329.633,124.444 320.581,121.746 310.912,121.746L297.718,121.746C313.706,109.281 324.018,89.858 324.018,68.061C324.02,30.532 293.487,0 255.959,0C218.43,0 187.898,30.532 187.898,68.061C187.898,89.858 198.21,109.281 214.198,121.746L201.004,121.746C191.37,121.746 182.348,124.426 174.622,129.076C174.628,128.696 174.651,128.321 174.651,127.94C174.651,90.411 144.119,59.879 106.59,59.879C69.061,59.879 38.53,90.411 38.53,127.939C38.53,144.588 44.548,159.852 54.512,171.692C28.694,172.701 8,193.856 8,219.73L8,328.914C8,347.444 18.619,363.548 34.126,371.574L47.918,498.619C48.745,506.232 55.173,512 62.831,512L150.35,512C158.008,512 164.436,506.232 165.262,498.619L179.057,371.552C180.327,370.895 181.567,370.185 182.772,369.421L197.292,498.674C198.145,506.263 204.562,512 212.198,512L299.717,512C307.355,512 313.773,506.262 314.623,498.672L329.133,369.302C330.367,370.092 331.635,370.829 332.937,371.507L346.737,498.62C347.563,506.233 353.992,512.001 361.649,512.001L449.169,512.001C456.826,512.001 463.255,506.233 464.081,498.62L477.873,371.576C493.38,363.55 503.999,347.446 503.999,328.916L503.999,219.73C504,193.856 483.306,172.7 457.489,171.693ZM255.959,30C276.945,30 294.02,47.074 294.02,68.061C294.02,89.048 276.946,106.122 255.959,106.122C234.972,106.122 217.898,89.048 217.898,68.061C217.898,47.074 234.972,30 255.959,30ZM474,219.73L474,328.914C474,338.887 465.729,347 455.564,347L355.254,347C349.04,347 343.376,343.867 340.009,339.023C353.605,329.639 362.547,313.881 362.547,296.053L362.547,201.643L455.563,201.643C465.729,201.644 474,209.757 474,219.73ZM405.409,89.878C426.396,89.878 443.471,106.952 443.471,127.939C443.471,148.926 426.396,166 405.409,166C384.423,166 367.348,148.926 367.348,127.939C367.348,106.952 384.423,89.878 405.409,89.878ZM266.373,206.882L255.959,220.377L245.544,206.882L255.959,180.262L266.373,206.882ZM179.369,173.794C179.369,161.636 189.075,151.746 201.005,151.746L234.902,151.746L214.514,203.86C212.595,208.766 213.389,214.318 216.608,218.489L244.085,254.094C246.925,257.775 251.311,259.93 255.96,259.93C260.608,259.93 264.995,257.774 267.835,254.094L295.312,218.489C298.531,214.319 299.326,208.766 297.406,203.86L277.018,151.746L310.915,151.746C322.845,151.746 332.551,161.637 332.551,173.794L332.551,296.054C332.551,308.212 322.845,318.102 310.915,318.102L201.004,318.102C189.074,318.102 179.368,308.211 179.368,296.054L179.368,173.794L179.369,173.794ZM106.59,89.878C127.577,89.878 144.651,106.952 144.651,127.939C144.651,148.926 127.577,166 106.59,166C85.603,166 68.53,148.926 68.53,127.939C68.53,106.952 85.604,89.878 106.59,89.878ZM38,219.73C38,209.757 46.271,201.644 56.436,201.644L149.369,201.644L149.369,296.054C149.369,313.909 158.338,329.69 171.97,339.069C168.582,343.939 162.92,347.001 156.745,347.001L56.436,347.001C46.271,347 38,338.887 38,328.914L38,219.73ZM76.29,482L64.891,377L148.29,377L136.89,482L76.29,482ZM286.307,482L225.609,482L210.567,348.102L301.325,348.102L286.307,482ZM375.11,482L363.711,377L447.109,377L435.71,482L375.11,482Z" style="fill:rgb(22,42,98);fill-rule:nonzero;"/>
</svg>
